tools/download-figma-icons/icons/outlined-large/lab.svg

<svg width="64" height="64" viewBox="0 0 64 64" fill="none" xmlns="http://www.w3.org/2000/svg">
<path fill-rule="evenodd" clip-rule="evenodd" d="M18.6113 3.00024C19.5653 3.00024 20.3413 3.77624 20.3413 4.73024C20.3413 5.68524 19.5653 6.46124 18.6113 6.46124C17.6573 6.46124 16.8813 5.68524 16.8813 4.73024C16.8813 3.77624 17.6573 3.00024 18.6113 3.00024ZM18.6113 9.46124C21.2193 9.46124 23.3413 7.33924 23.3413 4.73024C23.3413 2.12224 21.2193 0.000244141 18.6113 0.000244141C16.0033 0.000244141 13.8813 2.12224 13.8813 4.73024C13.8813 7.33924 16.0033 9.46124 18.6113 9.46124ZM3.526 51.9833C5.068 57.1403 9.85 60.9113 15.5 60.9113C21.15 60.9113 25.932 57.1403 27.474 51.9833H3.526ZM13.09 34.9713C13.09 35.6393 12.647 36.2263 12.005 36.4123C6.703 37.9403 3 42.8753 3 48.4113C3 48.5306 3.00801 48.6479 3.01603 48.7652C3.02098 48.8378 3.02594 48.9103 3.029 48.9833H27.971C27.9741 48.9103 27.979 48.8378 27.984 48.7652C27.992 48.6479 28 48.5306 28 48.4113C28 42.8553 24.273 37.9143 18.938 36.3933C18.294 36.2103 17.85 35.6213 17.85 34.9513V25.2113H13.09V34.9713ZM20.85 25.2103V33.8633C26.88 36.0813 31 41.9063 31 48.4113C31 56.9583 24.047 63.9113 15.5 63.9113C6.953 63.9113 0 56.9583 0 48.4113C0 41.9303 4.096 36.1123 10.09 33.8873V25.2103H8.381C7.553 25.2103 6.881 24.5393 6.881 23.7103C6.881 22.8823 7.553 22.2103 8.381 22.2103H22.381C23.209 22.2103 23.881 22.8823 23.881 23.7103C23.881 24.5393 23.209 25.2103 22.381 25.2103H20.85ZM37.4854 51.9833L33.3564 60.9113H60.0134L55.8814 51.9833H37.4854ZM44.2804 36.9613C44.2804 37.1793 44.2334 37.3933 44.1414 37.5913L38.8734 48.9833H54.4934L49.1784 37.5013C49.0864 37.3043 49.0404 37.0893 49.0404 36.8713V28.6613H44.2804V36.9613ZM52.0404 36.5413L63.7214 61.7813C63.9364 62.2453 63.8994 62.7883 63.6244 63.2193C63.3484 63.6503 62.8724 63.9113 62.3604 63.9113H31.0094C30.4984 63.9113 30.0214 63.6503 29.7464 63.2193C29.4704 62.7883 29.4334 62.2463 29.6484 61.7813L41.2804 36.6313V28.6613H39.6844C38.8564 28.6613 38.1844 27.9903 38.1844 27.1613C38.1844 26.3323 38.8564 25.6613 39.6844 25.6613H42.7804H50.5404H53.6844C54.5124 25.6613 55.1844 26.3323 55.1844 27.1613C55.1844 27.9903 54.5124 28.6613 53.6844 28.6613H52.0404V36.5413ZM29.6187 12.5778C29.6187 11.6238 28.8427 10.8478 27.8887 10.8478C26.9337 10.8478 26.1577 11.6238 26.1577 12.5778C26.1577 13.5328 26.9337 14.3088 27.8887 14.3088C28.8427 14.3088 29.6187 13.5328 29.6187 12.5778ZM32.6187 12.5778C32.6187 15.1868 30.4967 17.3088 27.8887 17.3088C25.2797 17.3088 23.1577 15.1868 23.1577 12.5778C23.1577 9.96984 25.2797 7.84784 27.8887 7.84784C30.4967 7.84784 32.6187 9.96984 32.6187 12.5778ZM51.4336 17.1999C52.3876 17.1999 53.1636 17.9759 53.1636 18.9309C53.1636 19.8849 52.3876 20.6609 51.4336 20.6609C50.4786 20.6609 49.7026 19.8849 49.7026 18.9309C49.7026 17.9759 50.4786 17.1999 51.4336 17.1999ZM46.7026 18.9309C46.7026 21.5389 48.8246 23.6609 51.4336 23.6609C54.0416 23.6609 56.1636 21.5389 56.1636 18.9309C56.1636 16.3219 54.0416 14.1999 51.4336 14.1999C48.8246 14.1999 46.7026 16.3219 46.7026 18.9309ZM41.1958 16.9489C41.1958 15.9949 40.4198 15.2189 39.4658 15.2189C38.5108 15.2189 37.7348 15.9949 37.7348 16.9489C37.7348 17.9039 38.5108 18.6799 39.4658 18.6799C40.4198 18.6799 41.1958 17.9039 41.1958 16.9489ZM44.1958 16.9489C44.1958 19.5579 42.0738 21.6799 39.4658 21.6799C36.8568 21.6799 34.7348 19.5579 34.7348 16.9489C34.7348 14.3409 36.8568 12.2189 39.4658 12.2189C42.0738 12.2189 44.1958 14.3409 44.1958 16.9489ZM45.9268 5.32934C46.8808 5.32934 47.6568 6.10534 47.6568 7.05934C47.6568 8.01434 46.8808 8.79034 45.9268 8.79034C44.9728 8.79034 44.1968 8.01434 44.1968 7.05934C44.1968 6.10534 44.9728 5.32934 45.9268 5.32934ZM45.9268 11.7903C48.5348 11.7903 50.6568 9.66834 50.6568 7.05934C50.6568 4.45134 48.5348 2.32934 45.9268 2.32934C43.3188 2.32934 41.1968 4.45134 41.1968 7.05934C41.1968 9.66834 43.3188 11.7903 45.9268 11.7903ZM15.1587 15.4792C15.1587 14.5252 14.3827 13.7492 13.4287 13.7492C12.4747 13.7492 11.6987 14.5252 11.6987 15.4792C11.6987 16.4342 12.4747 17.2102 13.4287 17.2102C14.3827 17.2102 15.1587 16.4342 15.1587 15.4792ZM18.1587 15.4792C18.1587 18.0882 16.0367 20.2102 13.4287 20.2102C10.8207 20.2102 8.6987 18.0882 8.6987 15.4792C8.6987 12.8712 10.8207 10.7492 13.4287 10.7492C16.0367 10.7492 18.1587 12.8712 18.1587 15.4792Z" fill="black"/>
</svg>

<svg xmlns="http://www.w3.org/2000/svg" width="64" height="64" fill="none" viewBox="0 0 64 64"><path fill="currentColor" fill-rule="evenodd" d="M18.611 3c.954 0 1.73.776 1.73 1.73 0 .955-.776 1.731-1.73 1.731s-1.73-.776-1.73-1.73c0-.955.776-1.73 1.73-1.73m0 6.461a4.736 4.736 0 0 0 4.73-4.73A4.736 4.736 0 0 0 18.611 0a4.736 4.736 0 0 0-4.73 4.73 4.736 4.736 0 0 0 4.73 4.73M3.526 51.983C5.068 57.14 9.85 60.911 15.5 60.911s10.432-3.77 11.974-8.928zm9.564-17.012c0 .668-.443 1.255-1.085 1.441C6.703 37.94 3 42.875 3 48.412c0 .119.008.236.016.353q.008.109.013.218h24.942q.005-.109.013-.218c.008-.117.016-.234.016-.354 0-5.556-3.727-10.497-9.062-12.018a1.5 1.5 0 0 1-1.088-1.442v-9.74h-4.76zm7.76-9.76v8.652C26.88 36.081 31 41.906 31 48.411c0 8.547-6.953 15.5-15.5 15.5S0 56.958 0 48.411c0-6.48 4.096-12.299 10.09-14.524V25.21H8.381a1.5 1.5 0 1 1 0-3h14a1.5 1.5 0 0 1 0 3zm16.635 26.772-4.129 8.928h26.657l-4.132-8.928zm6.795-15.022c0 .218-.047.432-.139.63l-5.268 11.392h15.62l-5.315-11.482a1.5 1.5 0 0 1-.138-.63v-8.21h-4.76zm7.76-.42 11.681 25.24a1.502 1.502 0 0 1-1.36 2.13H31.008a1.5 1.5 0 0 1-1.36-2.13l11.631-25.15v-7.97h-1.596a1.5 1.5 0 1 1 0-3h14a1.5 1.5 0 1 1 0 3H52.04zM29.62 12.578c0-.954-.776-1.73-1.73-1.73a1.731 1.731 0 1 0 1.729 1.73m3 0a4.736 4.736 0 0 1-4.73 4.73 4.736 4.736 0 0 1-4.731-4.73 4.736 4.736 0 0 1 4.73-4.73 4.736 4.736 0 0 1 4.73 4.73M51.434 17.2a1.731 1.731 0 0 1 0 3.46 1.73 1.73 0 0 1-1.731-1.73c0-.954.776-1.73 1.73-1.73m-4.731 1.73a4.736 4.736 0 0 0 4.73 4.73 4.736 4.736 0 0 0 4.73-4.73 4.736 4.736 0 0 0-4.73-4.73 4.736 4.736 0 0 0-4.73 4.73m-5.507-1.981c0-.954-.776-1.73-1.73-1.73a1.731 1.731 0 1 0 1.729 1.73m3 0a4.736 4.736 0 0 1-4.73 4.73 4.736 4.736 0 0 1-4.731-4.73 4.736 4.736 0 0 1 4.73-4.73 4.736 4.736 0 0 1 4.73 4.73m1.73-11.62a1.731 1.731 0 0 1 0 3.461c-.953 0-1.73-.776-1.73-1.73 0-.955.777-1.73 1.73-1.73m0 6.461a4.736 4.736 0 0 0 4.73-4.73 4.736 4.736 0 0 0-4.73-4.73 4.736 4.736 0 0 0-4.73 4.73 4.736 4.736 0 0 0 4.73 4.73M15.16 15.48a1.731 1.731 0 0 0-3.46 0c0 .954.776 1.73 1.73 1.73s1.73-.776 1.73-1.73m3 0a4.736 4.736 0 0 1-4.73 4.73 4.736 4.736 0 0 1-4.73-4.73 4.736 4.736 0 0 1 4.73-4.73 4.736 4.736 0 0 1 4.73 4.73" clip-rule="evenodd"/></svg>
